icons/laptop-slanted.svg

<svg width="24" height="24" viewBox="0 0 24 24" fill="none" xmlns="http://www.w3.org/2000/svg">
<path fill-rule="evenodd" clip-rule="evenodd" d="M3.29342 7.8706C3.23393 7.94125 3.21764 8.0126 3.24088 8.09396L3.24998 8.12582L4.75553 15.9547C4.78546 16.098 4.97216 16.25 5.11974 16.25H17.197L15.4843 8.04709C15.4555 7.9032 15.2679 7.75 15.1197 7.75H3.51974C3.46156 7.75 3.36474 7.78591 3.29342 7.8706ZM2.14605 6.9044C2.47474 6.51409 2.97791 6.25 3.51974 6.25H15.1197C15.9704 6.25 16.7817 6.89502 16.9545 7.74937C16.9547 7.75055 16.9549 7.75173 16.9552 7.75291L19.0425 17.75H5.11974C4.26791 17.75 3.45552 17.1032 3.2843 16.2471L3.28321 16.2416L1.78868 8.46995C1.62905 7.86493 1.81217 7.30088 2.14605 6.9044Z" fill="black"/>
<path fill-rule="evenodd" clip-rule="evenodd" d="M17.3698 17C17.3698 16.5858 17.7055 16.25 18.1198 16.25H21.5198C21.934 16.25 22.2698 16.5858 22.2698 17C22.2698 17.4142 21.934 17.75 21.5198 17.75H18.1198C17.7055 17.75 17.3698 17.4142 17.3698 17Z" fill="black"/>
<path fill-rule="evenodd" clip-rule="evenodd" d="M10.3198 10.95C9.73988 10.95 9.26978 11.4201 9.26978 12C9.26978 12.5799 9.73988 13.05 10.3198 13.05C10.8997 13.05 11.3698 12.5799 11.3698 12C11.3698 11.4201 10.8997 10.95 10.3198 10.95ZM7.76978 12C7.76978 10.5916 8.91145 9.44995 10.3198 9.44995C11.7281 9.44995 12.8698 10.5916 12.8698 12C12.8698 13.4083 11.7281 14.55 10.3198 14.55C8.91145 14.55 7.76978 13.4083 7.76978 12Z" fill="black"/>
</svg>

<svg xmlns="http://www.w3.org/2000/svg" fill="none" viewBox="0 0 24 24">
  <path fill="#000" fill-rule="evenodd" d="M3.293 7.87a.227.227 0 0 0-.052.224l.009.032 1.506 7.829c.03.143.216.295.364.295h12.077l-1.713-8.203c-.028-.144-.216-.297-.364-.297H3.52a.326.326 0 0 0-.227.12Zm-1.147-.966c.329-.39.832-.654 1.374-.654h11.6c.85 0 1.662.645 1.835 1.5v.003l2.088 9.997H5.12c-.852 0-1.664-.647-1.836-1.503v-.005L1.788 8.47c-.16-.605.023-1.17.357-1.566Z" clip-rule="evenodd"/>
  <path fill="#000" fill-rule="evenodd" d="M17.37 17a.75.75 0 0 1 .75-.75h3.4a.75.75 0 0 1 0 1.5h-3.4a.75.75 0 0 1-.75-.75Zm-7.05-6.05a1.05 1.05 0 1 0 0 2.1 1.05 1.05 0 0 0 0-2.1ZM7.77 12a2.55 2.55 0 1 1 5.1 0 2.55 2.55 0 0 1-5.1 0Z" clip-rule="evenodd"/>
</svg>
